src/lib/packages/icons/src/assets/filled/wave-pulse.svg

<svg width="24" height="24" viewBox="0 0 24 24" fill="none" xmlns="http://www.w3.org/2000/svg">
<path d="M8.91296 18.9999C8.22496 18.9999 7.63304 18.542 7.46204 17.87L6.22302 12.997H3C2.447 12.997 2 12.549 2 11.997C2 11.445 2.447 10.997 3 10.997H6.22302C7.13902 10.997 7.93601 11.6168 8.16101 12.5048L8.82898 15.132L10.589 5.23699C10.714 4.52899 11.305 4.01893 12.026 3.99993C12.77 3.96893 13.364 4.45784 13.527 5.15984L15.355 13.0199L15.832 12.0868C16.175 11.4148 16.857 10.997 17.613 10.997H21C21.553 10.997 22 11.445 22 11.997C22 12.549 21.553 12.997 21 12.997H17.6121L16.512 15.1489C16.222 15.7159 15.614 16.031 14.994 15.956C14.361 15.879 13.8589 15.4278 13.7159 14.8068L12.13 7.98894L10.392 17.7629C10.267 18.4659 9.68199 18.973 8.96899 18.999C8.95099 19 8.93196 18.9999 8.91296 18.9999Z" fill="currentColor"/>
</svg>

<svg xmlns="http://www.w3.org/2000/svg" width="24" height="24" fill="none"><path fill="currentColor" d="M8.913 19c-.688 0-1.28-.458-1.451-1.13l-1.239-4.873H3a1 1 0 1 1 0-2h3.223c.916 0 1.713.62 1.938 1.508l.668 2.627 1.76-9.895A1.486 1.486 0 0 1 12.026 4c.744-.031 1.338.458 1.501 1.16l1.828 7.86.477-.933a1.99 1.99 0 0 1 1.781-1.09H21a1 1 0 1 1 0 2h-3.388l-1.1 2.152a1.5 1.5 0 0 1-1.518.807 1.482 1.482 0 0 1-1.278-1.15L12.13 7.99l-1.738 9.774A1.489 1.489 0 0 1 8.969 19h-.056Z"/></svg>
